X: 2364
T: Baily View
R: hornpipe
M: 4/4
K: Edorian
(3DEF|:G2 BG =cDFA|(3GAG FA G2 de|fd=cd GA=ce|(3ded ce d2 ef|
gd=cd Bdgd|ed=cB =cBAG|FdEc DB=cA|1 (3GAG FA G=cBA:|2 (3GAG FA G2 FG||
|:AGAd fdcd|egce d2 =cd|e^dec Ac e2|GBed cABc|
dcdA FAdA|BAGF GFEF|GABG AFGE|1 (3DED CE D2 FG:|2 (3DED CE D^DEF||

